X:88
T:Lads and Lasses. RHu.088
T:Push About The Jorum,aka. RHu.088
S:R.Hughes MS,1823,Whitchurch,Shrops.
A:Whitchurch, Shropshire
Z:Neil Brookes 2006
M:4/4
L:1/8
Q:1/2=90
R:Reel
K:G
g|dBAG FAAc|BGBd g2fe|dBAG FAAc|BGAF G2G::!
d|g2gb afed|g2gba2d2|g2gb gfed|egfa g2g:|

